img/logo1.svg

<svg width="125" height="23" viewBox="0 0 125 23" fill="none" xmlns="http://www.w3.org/2000/svg">
<path d="M0 22.6322V22.2889H1.47509C1.71246 22.1091 1.83114 21.8884 1.83114 21.6269V6.47335C1.83114 6.2118 1.71246 5.99112 1.47509 5.8113H0V5.46802H7.50259C12.4704 5.46802 14.9543 6.97193 14.9543 9.97974C14.9543 11.5654 14.31 12.7914 13.0214 13.6578C11.7498 14.5078 10.0204 14.9328 7.83321 14.9328H6.28183V21.6269C6.28183 21.8884 6.40052 22.1091 6.63789 22.2889H8.62162V22.6322H0ZM7.09567 14.565C8.16384 14.565 8.97768 14.1891 9.53719 13.4371C10.0967 12.6688 10.3765 11.6063 10.3765 10.2495C10.3765 8.87633 10.0798 7.79744 9.48633 7.01279C8.8929 6.22814 8.03667 5.83582 6.91764 5.83582H6.28183V14.565H7.09567Z" fill="white" fill-opacity="0.5"/>
<path d="M25.6473 5.46802H30.9118V5.8113H30.0471L24.3757 17.3849C23.6297 18.9215 22.9938 20.0739 22.4682 20.8422C21.9596 21.5942 21.4509 22.1173 20.9423 22.4115C20.4506 22.7058 19.8487 22.8529 19.1366 22.8529C18.8314 22.8529 18.6025 22.8365 18.4499 22.8038L18.2973 19.1503C19.0942 19.3301 19.7639 19.42 20.3065 19.42C21.5442 19.42 22.4937 19.1258 23.1549 18.5373L15.6015 5.8113H14.8385V5.46802H24.4011V5.8113H22.5445C21.9342 6.00746 21.629 6.457 21.629 7.15991C21.629 7.7484 21.8409 8.4268 22.2648 9.1951L25.3421 14.6141L27.9362 9.26866C28.2923 8.5494 28.4703 7.88735 28.4703 7.28252C28.4703 6.48152 28.1482 5.99112 27.5039 5.8113H25.6473V5.46802Z" fill="white" fill-opacity="0.5"/>
<path d="M39.1214 23C37.4428 23 35.9508 22.6322 34.6452 21.8966C33.3567 21.161 32.3478 20.1066 31.6188 18.7335C30.8897 17.3603 30.5252 15.7584 30.5252 13.9275C30.5252 12.2111 30.8897 10.6827 31.6188 9.34222C32.3478 8.00178 33.3821 6.96375 34.7215 6.22815C36.0779 5.47619 37.6548 5.10021 39.452 5.10021C40.9779 5.10021 42.3174 5.35359 43.4703 5.86034C44.6402 6.36709 45.5643 7.1027 46.2425 8.06716C46.9376 9.03163 47.3191 10.1841 47.3869 11.5245L43.1906 12.0149C43.1906 9.77541 42.8938 8.12438 42.3004 7.06183C41.724 5.99929 40.7745 5.46802 39.452 5.46802C38.0617 5.46802 37.0105 6.07285 36.2984 7.28252C35.5862 8.47583 35.2302 10.2331 35.2302 12.5544C35.2302 14.1564 35.493 15.5622 36.0186 16.7719C36.5442 17.9652 37.2817 18.8888 38.2312 19.5426C39.1977 20.1802 40.3252 20.4989 41.6137 20.4989C43.0549 20.4989 44.2757 20.0412 45.276 19.1258C46.2933 18.2104 47.0054 16.9108 47.4124 15.2271L47.7684 15.3006C46.4459 20.4335 43.5636 23 39.1214 23Z" fill="white" fill-opacity="0.5"/>
<path d="M57.5003 23C55.8218 23 54.3297 22.6322 53.0242 21.8966C51.7356 21.161 50.7268 20.1066 49.9977 18.7335C49.2687 17.3603 48.9041 15.7584 48.9041 13.9275C48.9041 12.2111 49.2687 10.6827 49.9977 9.34222C50.7268 8.00178 51.7611 6.96375 53.1005 6.22815C54.4569 5.47619 56.0337 5.10021 57.8309 5.10021C59.3569 5.10021 60.6963 5.35359 61.8493 5.86034C63.0192 6.36709 63.9432 7.1027 64.6214 8.06716C65.3166 9.03163 65.6981 10.1841 65.7659 11.5245L61.5695 12.0149C61.5695 9.77541 61.2728 8.12438 60.6794 7.06183C60.1029 5.99929 59.1534 5.46802 57.8309 5.46802C56.4406 5.46802 55.3894 6.07285 54.6773 7.28252C53.9652 8.47583 53.6091 10.2331 53.6091 12.5544C53.6091 14.1564 53.8719 15.5622 54.3976 16.7719C54.9232 17.9652 55.6607 18.8888 56.6102 19.5426C57.5766 20.1802 58.7041 20.4989 59.9927 20.4989C61.4339 20.4989 62.6546 20.0412 63.655 19.1258C64.6723 18.2104 65.3844 16.9108 65.7913 15.2271L66.1474 15.3006C64.8249 20.4335 61.9425 23 57.5003 23Z" fill="white" fill-opacity="0.5"/>
<path d="M67.2322 22.6322V22.2889H68.7073C68.9447 22.1091 69.0634 21.8884 69.0634 21.6269V6.47335C69.0634 6.2118 68.9447 5.99112 68.7073 5.8113H67.2322V5.46802H75.3452V5.8113H73.8701C73.6327 5.99112 73.5141 6.2118 73.5141 6.47335V13.5597H74.1753L79.1855 8.28785C79.4398 8.0263 79.6348 7.7484 79.7705 7.45416C79.9061 7.14357 79.9739 6.86567 79.9739 6.62047C79.9739 6.19545 79.8129 5.92573 79.4907 5.8113H77.0746V5.46802H83.4073V5.8113H82.0848L76.9474 11.1567L83.6871 20.8177C84.094 21.4062 84.4246 21.7985 84.6789 21.9947C84.9502 22.1908 85.2724 22.2889 85.6454 22.2889V22.6322H76.8712V22.2889H78.5243C78.7277 22.1581 78.8295 21.9211 78.8295 21.5778C78.8295 21.2018 78.7277 20.8586 78.5243 20.548L74.1753 13.9275H73.5141V21.6269C73.5141 21.8884 73.6327 22.1091 73.8701 22.2889H75.3452V22.6322H67.2322Z" fill="white" fill-opacity="0.5"/>
<path d="M85.5864 22.6322V22.2889H87.0614C87.2988 22.1091 87.4175 21.8884 87.4175 21.6269V6.47335C87.4175 6.2118 87.2988 5.99112 87.0614 5.8113H85.5864V5.46802H93.6993V5.8113H92.2242C91.9869 5.99112 91.8682 6.2118 91.8682 6.47335V19.8369L99.3199 5.46802H104.584V5.8113H103.109C102.872 5.99112 102.753 6.2118 102.753 6.47335V21.6269C102.753 21.8884 102.872 22.1091 103.109 22.2889H104.584V22.6322H96.4715V22.2889H97.9466C98.1839 22.1091 98.3026 21.8884 98.3026 21.6269V8.26333L90.8509 22.6322H85.5864Z" fill="white" fill-opacity="0.5"/>
<path d="M106.002 22.6322V22.2889H107.477C107.714 22.1091 107.833 21.8884 107.833 21.6269V6.47335C107.833 6.2118 107.714 5.99112 107.477 5.8113H106.002V5.46802H114.115V5.8113H112.64C112.402 5.99112 112.284 6.2118 112.284 6.47335V19.8369L119.735 5.46802H125V5.8113H123.525C123.288 5.99112 123.169 6.2118 123.169 6.47335V21.6269C123.169 21.8884 123.288 22.1091 123.525 22.2889H125V22.6322H116.887V22.2889H118.362C118.599 22.1091 118.718 21.8884 118.718 21.6269V8.26333L111.266 22.6322H106.002ZM115.768 3.8742C114.123 3.8742 112.792 3.5963 111.775 3.04051C110.758 2.46837 110.164 1.68372 109.995 0.686567L113.81 0C113.81 1.14428 113.971 2.01066 114.293 2.59915C114.632 3.18763 115.124 3.48188 115.768 3.48188C116.412 3.48188 116.896 3.18763 117.218 2.59915C117.557 2.01066 117.726 1.14428 117.726 0L121.541 0.686567C121.372 1.68372 120.778 2.46837 119.761 3.04051C118.744 3.5963 117.413 3.8742 115.768 3.8742Z" fill="white" fill-opacity="0.5"/>
</svg>

<svg xmlns="http://www.w3.org/2000/svg" width="125" height="23" fill="none"><path fill="#fff" fill-opacity=".5" d="M0 22.632v-.343h1.475q.356-.27.356-.662V6.473q0-.392-.356-.662H0v-.343h7.503q7.45 0 7.451 4.512 0 2.378-1.933 3.678-1.906 1.275-5.188 1.275H6.282v6.694q0 .392.356.662h1.984v.343zm7.096-8.067q1.602 0 2.441-1.128.84-1.152.84-3.187 0-2.061-.89-3.237t-2.57-1.177h-.635v8.729z"/><path fill="#fff" fill-opacity=".5" d="M25.647 5.468h5.265v.343h-.865l-5.671 11.574q-1.119 2.305-1.908 3.457-.762 1.128-1.526 1.57-.737.44-1.805.44-.459 0-.687-.048l-.153-3.654q1.195.27 2.01.27 1.856 0 2.848-.883L15.6 5.811h-.763v-.343h9.563v.343h-1.857q-.915.294-.915 1.349 0 .883.636 2.035l3.077 5.42 2.594-5.346q.534-1.08.534-1.986 0-1.202-.966-1.472h-1.857zM39.121 23q-2.517 0-4.476-1.103-1.932-1.104-3.026-3.163-1.095-2.06-1.094-4.807 0-2.574 1.094-4.585a7.66 7.66 0 0 1 3.102-3.114Q36.758 5.1 39.453 5.1q2.289 0 4.018.76 1.755.76 2.773 2.207 1.042 1.447 1.144 3.457l-4.196.49q0-3.359-.89-4.952-.865-1.594-2.849-1.594-2.085 0-3.154 1.815-1.068 1.79-1.068 5.271 0 2.403.789 4.218.788 1.79 2.212 2.77 1.45.957 3.383.957 2.161 0 3.662-1.373 1.526-1.373 2.136-3.899l.356.074Q45.785 23 39.121 23M57.5 23q-2.517 0-4.476-1.103-1.932-1.104-3.026-3.163-1.095-2.06-1.094-4.807 0-2.574 1.094-4.585A7.66 7.66 0 0 1 53.1 6.228Q55.137 5.1 57.83 5.1q2.29 0 4.02.76 1.755.76 2.771 2.207 1.043 1.447 1.145 3.457l-4.197.49q0-3.359-.89-4.952-.865-1.594-2.848-1.594-2.086 0-3.154 1.815-1.068 1.79-1.068 5.271 0 2.403.789 4.218.788 1.79 2.212 2.77 1.45.957 3.383.957 2.161 0 3.662-1.373 1.526-1.373 2.136-3.899l.356.074Q64.163 23 57.5 23M67.232 22.632v-.343h1.475q.356-.27.356-.662V6.473q0-.392-.356-.662h-1.475v-.343h8.113v.343H73.87q-.356.27-.356.662v7.087h.661l5.01-5.272q.383-.393.585-.834.204-.465.204-.834 0-.637-.483-.809h-2.416v-.343h6.332v.343h-1.322l-5.138 5.346 6.74 9.66q.61.884.992 1.178.406.294.966.294v.343h-8.774v-.343h1.653q.306-.196.305-.711 0-.564-.305-1.03l-4.349-6.62h-.66v7.699q0 .392.355.662h1.475v.343z"/><path fill="#fff" fill-opacity=".5" d="M85.586 22.632v-.343h1.475q.357-.27.356-.662V6.473q0-.392-.356-.662h-1.475v-.343H93.7v.343h-1.475q-.356.27-.356.662v13.364L99.32 5.468h5.264v.343h-1.475q-.356.27-.356.662v15.154q0 .392.356.662h1.475v.343h-8.112v-.343h1.475q.356-.27.356-.662V8.263l-7.452 14.37zM106.002 22.632v-.343h1.475q.356-.27.356-.662V6.473q0-.392-.356-.662h-1.475v-.343h8.113v.343h-1.475q-.356.27-.356.662v13.364l7.451-14.369H125v.343h-1.475q-.356.27-.356.662v15.154q0 .392.356.662H125v.343h-8.113v-.343h1.475q.356-.27.356-.662V8.263l-7.452 14.37zm9.766-18.758q-2.468 0-3.993-.833-1.526-.859-1.78-2.354L113.81 0q0 1.715.483 2.6.509.882 1.475.882t1.45-.883q.508-.883.508-2.599l3.815.687q-.254 1.495-1.78 2.354-1.526.833-3.993.833"/></svg>
